X:610
T: Biddy Martin
T: Bid\'i Mh\'airt\'in
S: B.Breathnach: "Ceol Rince na hEireann" II/111
Z: B.Black
L: 1/8
M: 2/4
R: polka
K: D
fe/d/ ce|ef ed|fe/d/ ce|eA d2 :|
fa/f/ ef/f/|af ed|fa/f/ ef/f/|af e2|
fa/f/ ef/f/|af ed|fe/d/ ce|eA d2 ||
